!!!SOCIAL_FUNCTION:	songs of war
!!!PDT:	1918

Specific Region: Dakotas, Minnesota, Montana, Nebraska
!!!REG: Dakotas and Montana
!!!LING_GROUP: Siouan
!!!LANG: Tone
!!!OTL@ENG: You May Go on the Warpath
!!!ONM: No. 151
**kern
*Imale
*clefF4
*k[b-e-]
*M3/4
*MM92
8f
8d
8d
8d
(16d
16c)
8B-
=2
8f
8d
16d
8.f
(16f
16d)
8d
=3
8f
8d
16d
8.d
(16d
16c)
8B-
=4
8c
8c
8c
8d
8d
8d
=5
8c
8c
4c
8d
8c
=6||
*M2/4
8B-
8B-
(16B-
16F)
8F
=7
8B-
[8B-
8B-]
8c
=8
4B-
4B-
=9
8c
8B-
8F
8F
=10
2F
=11
2F
==
*-
!!!CNT: Native American -- Sioux
!!!MRD: 1911/07//-1914///
!!!OCL: Frances Densmore
!!!YOR1: Teton Sioux Music, Bulletin 61,
!!!YOR2: Bureau of American Ethnology, Smithsonian Institution
!!!PPR: Government Printing Office
!!!PPP: Washington, D.C.
!!!PDT: 1918///
!!!ENC: Craig Stuart Sapp
!!!END: 2002/03/25/
!!!EEV: 2002/03/31/
!!!AGN: War Song/Song of a Typical War Expedition
!!!MPN@@SIO: Waha'chungka-nong'pa
!!!MPN@ENG: Two Shields
!!!TXO: Teton Sioux
!!!MLC: Standing Rock Reservation, South Dakota, United States of America
!!!ARL: 45.9/-100.7#
!!!catalog: Catalogue No. 531
!!!PPG: 370
!!!EFL: 156/245
!!!VTS: 3280235150
